X:1
T:Neapolitan Love Song
T:Neapolitan Love Song
T:T'amo
T:Victor Herbert
T:Henry Blossom
C:Victor Herbert
Z:All Rights Reserved
L:1/8
M:2/4
K:D
V:1 treble 
%%MIDI program 40
%%MIDI control 7 100
%%MIDI control 10 64
V:1
 z d |"A7" c<A"B7/F#" BA |"F7" =c>A"A7" ^cA ||S"D""^Refrain" A2 F2- |"D/F#" FE/F/"Fdim" ED | %5
w: |||Sweet one!|* How my heart is|
"Em7" D2"A7" C2 | C4 |"Em7" B2 G2- |"A7" GF/G/ FE |"D" A4- |"A7" A4 |"Bm" d2 F2 | FE/F/ ED | %13
w: yearn- ing||Ev- er|* with * you to|be!||Love- light|* in your dear eyes|
"A" C2 E2 |"F#m" F2 c2 |"Bm7" c2 e2- |"E7" ec (3BAB |"A" A2"Em7" B2 | B2"A7" A2 |"D" A2 F2- | %20
w: burn- ing,|stead- fast,|faith- ful|* and true * tyo|me! Tell|* me|When shall|
"D/F#" FE/F/"Fdim" ED |"Em7" D2 C2- |"A7" C4 |"Em7" B2 G2 |"A7" GF/G/ FE |"D" A4- |"A7" A4 | %27
w: * I a- gain ca-|ress you?||Kiss you?|* On- ly tell me|when?||
"Bm" d2 F2- | F^G"E7" c>B |"D" B2 A2 |"B7" G2 F2 |"Em7" B2 E2-!dacoda! |O"Em7" E/E/F/A/ F>E | %33
w: Ah me!|* I long to|press you,|Dar- ling,|fond- ly|* with- in my arms a-|
"D" D4 ||[M:6/8]"A7" z A,B, CD>=F |"Dm""^Verse" _B2 A- AG=F |"A7" GAG =F2 E |"Dm" =F D2- D2 F | %38
w: gain!|* * * * 'Tis|ev- 'ning * and the|sun is at rest, The|sha- dows * now|
"A7" A6- |"Dm" A=FG AGF |"A7" GAG =F2 E |"Dm" D6 |"A7" E3- E2 A |"Dm" _B2 A- AG=F |"A7" GAG =F2 E | %45
w: fall.|* In the hea- vens a|ra- di- ant star is|shin-|ing * And|soft- ly * as the|night drops her sa- ble|
"Dm" =F D2- D2 F | A6- |"F" AA_B =cBA |"G7" G D2- D3- |"C7" DGA _BA>G |"F" =F6 | %51
w: man- tle * o'er|all,|* There's a night- in- gale|sing- ing *|* of his love for a|rose!|
"Cm6" GGG"F7" A2 A |"Bb" G =F2-"Gm7" FG_B |"F7" GA=F G<=cA |"Bb" (3G/A/G/ =F2- F3 | %55
w: Mad- ly my heart is|beat- ing * As I|long for my hour * of|meet- * * ing! *|
"Bb7" _BBB B=cd |"Dm" d A2- A3 |"Bb7" z DE =FE>D |[M:2/4]"A7""Gm7" A3 _B |"A7""Gm7" A3 d/>c/ | %60
w: Vis- ion of beau- ty and|grace! * *|I a- wait your em|brace! Ah!|vien! Sei- mi-|
"A7" c<A"B7/F#" BA |"F7" B>A"A7" cA!D.S.! ||"A7""^Coda" E/E/F/A/ e>e |"D" d z/"Bb7" =f/"D" fa | %64
w: a! * * *||* with- in my arms a-|gain! * * *|
 d'3 z |] %65
w: |

